X: 25831
T: Master Euan Ivory's
R: reel
M: 4/4
K: Amajor
E2|:A2AB cAce|a2ga fece|fgaf ecAc|dBcA BGGB|
A2AB cAce|a2ga fece|fgaf gabg|agac'a4:|
|:cAAA cAAA|cAAA fgaf|cAAA cAAc|dBcAB2AB|
[1 cAAA cAAA|cAAA fgaf|cAAA cAAc|BEcBA2AB:|
[2 A2AB cAce|a2ga fece|fgaf gabg|agac'a2||

